assets/1. P-Z/Wheel of dharma/Color/Wheel.Of.Dharma-color.svg

<svg width="100%" height="100%" viewBox="0 0 32 32" fill="none" xmlns="http://www.w3.org/2000/svg">
<g filter="url(#filter0_ii_18590_1025)">
<rect x="1.72333" y="1.6875" width="27.875" height="27.875" rx="3.6" fill="url(#paint0_linear_18590_1025)"/>
<rect x="1.72333" y="1.6875" width="27.875" height="27.875" rx="3.6" fill="url(#paint1_radial_18590_1025)"/>
</g>
<g filter="url(#filter1_f_18590_1025)">
<path d="M27.9108 4.1875V27.0625" stroke="url(#paint2_linear_18590_1025)" stroke-width="1.5" stroke-linecap="round"/>
</g>
<g filter="url(#filter2_f_18590_1025)">
<path d="M5.18719 3.5H26.9684" stroke="url(#paint3_linear_18590_1025)" stroke-width="1.5" stroke-linecap="round"/>
</g>
<g filter="url(#filter3_f_18590_1025)">
<path d="M15.6573 4.59375C15.2431 4.59375 14.9073 4.92954 14.9073 5.34375V5.52859C14.9073 5.58095 14.8668 5.6244 14.8146 5.62875C12.6784 5.80699 10.7331 6.65668 9.19016 7.96614C9.1502 8.00006 9.09083 7.99795 9.05377 7.96088L8.91766 7.82477C8.62477 7.53188 8.14989 7.53188 7.857 7.82477C7.56411 8.11767 7.56411 8.59254 7.857 8.88543L7.99574 9.02417C8.03269 9.06112 8.03492 9.12024 8.00129 9.16023C6.70165 10.7052 5.86109 12.6492 5.68976 14.782C5.68556 14.8343 5.64205 14.875 5.58957 14.875H5.37604C4.96182 14.875 4.62604 15.2108 4.62604 15.625C4.62604 16.0392 4.96182 16.375 5.37604 16.375H5.59478C5.64702 16.375 5.69042 16.4153 5.69492 16.4674C5.87874 18.5913 6.72651 20.5254 8.02962 22.0608C8.06354 22.1008 8.06143 22.1601 8.02436 22.1972L7.857 22.3646C7.56411 22.6575 7.56411 23.1323 7.857 23.4252C8.14989 23.7181 8.62477 23.7181 8.91766 23.4252L9.08764 23.2552C9.12459 23.2183 9.18372 23.2161 9.2237 23.2497C10.7612 24.5431 12.6939 25.3818 14.8146 25.5587C14.8668 25.5631 14.9073 25.6065 14.9073 25.6589V25.9062C14.9073 26.3205 15.2431 26.6562 15.6573 26.6562C16.0715 26.6562 16.4073 26.3205 16.4073 25.9062V25.6589C16.4073 25.6065 16.4478 25.5631 16.5 25.5587C18.6206 25.3818 20.5533 24.5431 22.0908 23.2498C22.1308 23.2161 22.1899 23.2184 22.2269 23.2553L22.3969 23.4253C22.6898 23.7182 23.1647 23.7182 23.4576 23.4253C23.7504 23.1324 23.7504 22.6576 23.4576 22.3647L23.2902 22.1973C23.2531 22.1602 23.251 22.1008 23.2849 22.0609C24.588 20.5254 25.4358 18.5914 25.6197 16.4674C25.6242 16.4153 25.6676 16.375 25.7198 16.375H25.9385C26.3528 16.375 26.6885 16.0392 26.6885 15.625C26.6885 15.2108 26.3528 14.875 25.9385 14.875H25.725C25.6725 14.875 25.629 14.8343 25.6248 14.782C25.4535 12.6492 24.6129 10.7052 23.3132 9.16016C23.2796 9.12018 23.2818 9.06105 23.3188 9.02411L23.4576 8.88533C23.7504 8.59244 23.7504 8.11756 23.4576 7.82467C23.1647 7.53178 22.6898 7.53178 22.3969 7.82467L22.2607 7.96082C22.2237 7.99789 22.1643 8 22.1243 7.96608C20.5814 6.65665 18.6361 5.80698 16.5 5.62875C16.4478 5.6244 16.4073 5.58095 16.4073 5.52859V5.34375C16.4073 4.92954 16.0715 4.59375 15.6573 4.59375ZM21.0473 9.02091C21.0926 9.05809 21.0954 9.12614 21.054 9.16756L17.2561 12.9655C17.2236 12.998 17.1733 13.004 17.1333 12.9814C16.9298 12.8662 16.7116 12.774 16.4821 12.7086C16.4382 12.696 16.4073 12.6564 16.4073 12.6107V7.23551C16.4073 7.17684 16.4576 7.13073 16.516 7.13659C18.2269 7.30823 19.7882 7.98724 21.0473 9.02091ZM18.2912 14.1565C18.2695 14.1167 18.2758 14.0671 18.3078 14.035L22.1115 10.2314C22.1531 10.1898 22.2214 10.1929 22.2585 10.2385C23.2825 11.4992 23.9527 13.0591 24.1176 14.7666C24.1232 14.8249 24.0771 14.875 24.0186 14.875H18.649C18.603 14.875 18.5631 14.8435 18.5509 14.7991C18.489 14.5731 18.4013 14.3578 18.2912 14.1565ZM18.2855 17.1926C18.253 17.1601 18.247 17.1098 18.2696 17.0699C18.3798 16.8753 18.4688 16.6672 18.5337 16.4488C18.5466 16.4054 18.586 16.375 18.6312 16.375H24.0123C24.0711 16.375 24.1173 16.4256 24.1112 16.4841C23.9344 18.1826 23.2574 19.7325 22.2301 20.9838C22.1929 21.0291 22.1248 21.032 22.0834 20.9905L18.2855 17.1926ZM17.0945 18.2277C17.1343 18.206 17.1838 18.2123 17.2159 18.2443L21.0196 22.048C21.0612 22.0896 21.0581 22.1579 21.0125 22.195C19.7595 23.2127 18.2112 23.8808 16.516 24.0509C16.4576 24.0568 16.4073 24.0107 16.4073 23.952V18.5768C16.4073 18.5311 16.4382 18.4915 16.4821 18.4789C16.6971 18.4176 16.9022 18.3329 17.0945 18.2277ZM14.0986 18.2443C14.1306 18.2122 14.1802 18.2059 14.22 18.2277C14.4123 18.3329 14.6175 18.4176 14.8325 18.4789C14.8764 18.4915 14.9073 18.5311 14.9073 18.5768V23.952C14.9073 24.0107 14.8569 24.0568 14.7986 24.0509C13.1034 23.8808 11.555 23.2127 10.302 22.195C10.2564 22.1579 10.2533 22.0896 10.2949 22.048L14.0986 18.2443ZM13.0449 17.0698C13.0675 17.1097 13.0615 17.1601 13.029 17.1925L9.2311 20.9905C9.18967 21.0319 9.12163 21.029 9.08445 20.9837C8.05715 19.7325 7.38015 18.1826 7.20336 16.4841C7.19727 16.4256 7.24343 16.375 7.30224 16.375H12.6834C12.7286 16.375 12.768 16.4054 12.7809 16.4488C12.8457 16.6672 12.9348 16.8753 13.0449 17.0698ZM13.0067 14.0351C13.0388 14.0672 13.0451 14.1167 13.0233 14.1565C12.9132 14.3578 12.8256 14.5732 12.7637 14.7991C12.7515 14.8435 12.7116 14.875 12.6655 14.875H7.29597C7.23745 14.875 7.19139 14.8249 7.19701 14.7666C7.3619 13.0591 8.03201 11.4993 9.05603 10.2386C9.0931 10.1929 9.16143 10.1899 9.20301 10.2314L13.0067 14.0351ZM14.1812 12.9814C14.1412 13.004 14.0909 12.998 14.0584 12.9655L10.2605 9.16762C10.2191 9.12619 10.2219 9.05815 10.2672 9.02097C11.5263 7.98726 13.0876 7.30824 14.7986 7.13659C14.8569 7.13073 14.9073 7.17684 14.9073 7.23551V12.6107C14.9073 12.6564 14.8763 12.696 14.8325 12.7086C14.603 12.7741 14.3847 12.8662 14.1812 12.9814ZM17.1573 15.5938C17.1573 16.4222 16.4857 17.0938 15.6573 17.0938C14.8289 17.0938 14.1573 16.4222 14.1573 15.5938C14.1573 14.7653 14.8289 14.0938 15.6573 14.0938C16.4857 14.0938 17.1573 14.7653 17.1573 15.5938Z" fill="#6A4EBE"/>
</g>
<g filter="url(#filter4_ii_18590_1025)">
<path d="M15.6573 4.59375C15.2431 4.59375 14.9073 4.92954 14.9073 5.34375V5.52859C14.9073 5.58095 14.8668 5.6244 14.8146 5.62875C12.6784 5.80699 10.7331 6.65668 9.19016 7.96614C9.1502 8.00006 9.09083 7.99795 9.05377 7.96088L8.91766 7.82477C8.62477 7.53188 8.14989 7.53188 7.857 7.82477C7.56411 8.11767 7.56411 8.59254 7.857 8.88543L7.99574 9.02417C8.03269 9.06112 8.03492 9.12024 8.00129 9.16023C6.70165 10.7052 5.86109 12.6492 5.68976 14.782C5.68556 14.8343 5.64205 14.875 5.58957 14.875H5.37604C4.96182 14.875 4.62604 15.2108 4.62604 15.625C4.62604 16.0392 4.96182 16.375 5.37604 16.375H5.59478C5.64702 16.375 5.69042 16.4153 5.69492 16.4674C5.87874 18.5913 6.72651 20.5254 8.02962 22.0608C8.06354 22.1008 8.06143 22.1601 8.02436 22.1972L7.857 22.3646C7.56411 22.6575 7.56411 23.1323 7.857 23.4252C8.14989 23.7181 8.62477 23.7181 8.91766 23.4252L9.08764 23.2552C9.12459 23.2183 9.18372 23.2161 9.2237 23.2497C10.7612 24.5431 12.6939 25.3818 14.8146 25.5587C14.8668 25.5631 14.9073 25.6065 14.9073 25.6589V25.9062C14.9073 26.3205 15.2431 26.6562 15.6573 26.6562C16.0715 26.6562 16.4073 26.3205 16.4073 25.9062V25.6589C16.4073 25.6065 16.4478 25.5631 16.5 25.5587C18.6206 25.3818 20.5533 24.5431 22.0908 23.2498C22.1308 23.2161 22.1899 23.2184 22.2269 23.2553L22.3969 23.4253C22.6898 23.7182 23.1647 23.7182 23.4576 23.4253C23.7504 23.1324 23.7504 22.6576 23.4576 22.3647L23.2902 22.1973C23.2531 22.1602 23.251 22.1008 23.2849 22.0609C24.588 20.5254 25.4358 18.5914 25.6197 16.4674C25.6242 16.4153 25.6676 16.375 25.7198 16.375H25.9385C26.3528 16.375 26.6885 16.0392 26.6885 15.625C26.6885 15.2108 26.3528 14.875 25.9385 14.875H25.725C25.6725 14.875 25.629 14.8343 25.6248 14.782C25.4535 12.6492 24.6129 10.7052 23.3132 9.16016C23.2796 9.12018 23.2818 9.06105 23.3188 9.02411L23.4576 8.88533C23.7504 8.59244 23.7504 8.11756 23.4576 7.82467C23.1647 7.53178 22.6898 7.53178 22.3969 7.82467L22.2607 7.96082C22.2237 7.99789 22.1643 8 22.1243 7.96608C20.5814 6.65665 18.6361 5.80698 16.5 5.62875C16.4478 5.6244 16.4073 5.58095 16.4073 5.52859V5.34375C16.4073 4.92954 16.0715 4.59375 15.6573 4.59375ZM21.0473 9.02091C21.0926 9.05809 21.0954 9.12614 21.054 9.16756L17.2561 12.9655C17.2236 12.998 17.1733 13.004 17.1333 12.9814C16.9298 12.8662 16.7116 12.774 16.4821 12.7086C16.4382 12.696 16.4073 12.6564 16.4073 12.6107V7.23551C16.4073 7.17684 16.4576 7.13073 16.516 7.13659C18.2269 7.30823 19.7882 7.98724 21.0473 9.02091ZM18.2912 14.1565C18.2695 14.1167 18.2758 14.0671 18.3078 14.035L22.1115 10.2314C22.1531 10.1898 22.2214 10.1929 22.2585 10.2385C23.2825 11.4992 23.9527 13.0591 24.1176 14.7666C24.1232 14.8249 24.0771 14.875 24.0186 14.875H18.649C18.603 14.875 18.5631 14.8435 18.5509 14.7991C18.489 14.5731 18.4013 14.3578 18.2912 14.1565ZM18.2855 17.1926C18.253 17.1601 18.247 17.1098 18.2696 17.0699C18.3798 16.8753 18.4688 16.6672 18.5337 16.4488C18.5466 16.4054 18.586 16.375 18.6312 16.375H24.0123C24.0711 16.375 24.1173 16.4256 24.1112 16.4841C23.9344 18.1826 23.2574 19.7325 22.2301 20.9838C22.1929 21.0291 22.1248 21.032 22.0834 20.9905L18.2855 17.1926ZM17.0945 18.2277C17.1343 18.206 17.1838 18.2123 17.2159 18.2443L21.0196 22.048C21.0612 22.0896 21.0581 22.1579 21.0125 22.195C19.7595 23.2127 18.2112 23.8808 16.516 24.0509C16.4576 24.0568 16.4073 24.0107 16.4073 23.952V18.5768C16.4073 18.5311 16.4382 18.4915 16.4821 18.4789C16.6971 18.4176 16.9022 18.3329 17.0945 18.2277ZM14.0986 18.2443C14.1306 18.2122 14.1802 18.2059 14.22 18.2277C14.4123 18.3329 14.6175 18.4176 14.8325 18.4789C14.8764 18.4915 14.9073 18.5311 14.9073 18.5768V23.952C14.9073 24.0107 14.8569 24.0568 14.7986 24.0509C13.1034 23.8808 11.555 23.2127 10.302 22.195C10.2564 22.1579 10.2533 22.0896 10.2949 22.048L14.0986 18.2443ZM13.0449 17.0698C13.0675 17.1097 13.0615 17.1601 13.029 17.1925L9.2311 20.9905C9.18967 21.0319 9.12163 21.029 9.08445 20.9837C8.05715 19.7325 7.38015 18.1826 7.20336 16.4841C7.19727 16.4256 7.24343 16.375 7.30224 16.375H12.6834C12.7286 16.375 12.768 16.4054 12.7809 16.4488C12.8457 16.6672 12.9348 16.8753 13.0449 17.0698ZM13.0067 14.0351C13.0388 14.0672 13.0451 14.1167 13.0233 14.1565C12.9132 14.3578 12.8256 14.5732 12.7637 14.7991C12.7515 14.8435 12.7116 14.875 12.6655 14.875H7.29597C7.23745 14.875 7.19139 14.8249 7.19701 14.7666C7.3619 13.0591 8.03201 11.4993 9.05603 10.2386C9.0931 10.1929 9.16143 10.1899 9.20301 10.2314L13.0067 14.0351ZM14.1812 12.9814C14.1412 13.004 14.0909 12.998 14.0584 12.9655L10.2605 9.16762C10.2191 9.12619 10.2219 9.05815 10.2672 9.02097C11.5263 7.98726 13.0876 7.30824 14.7986 7.13659C14.8569 7.13073 14.9073 7.17684 14.9073 7.23551V12.6107C14.9073 12.6564 14.8763 12.696 14.8325 12.7086C14.603 12.7741 14.3847 12.8662 14.1812 12.9814ZM17.1573 15.5938C17.1573 16.4222 16.4857 17.0938 15.6573 17.0938C14.8289 17.0938 14.1573 16.4222 14.1573 15.5938C14.1573 14.7653 14.8289 14.0938 15.6573 14.0938C16.4857 14.0938 17.1573 14.7653 17.1573 15.5938Z" fill="#FCF2FF"/>
</g>
<defs>
<filter id="filter0_ii_18590_1025" x="1.72333" y="0.6875" width="29.875" height="28.875" filterUnits="userSpaceOnUse" color-interpolation-filters="sRGB">
<feFlood flood-opacity="0" result="BackgroundImageFix"/>
<feBlend mode="normal" in="SourceGraphic" in2="BackgroundImageFix" result="shape"/>
<feColorMatrix in="SourceAlpha" type="matrix" values="0 0 0 0 0 0 0 0 0 0 0 0 0 0 0 0 0 0 127 0" result="hardAlpha"/>
<feOffset dx="2" dy="-1"/>
<feGaussianBlur stdDeviation="1.5"/>
<feComposite in2="hardAlpha" operator="arithmetic" k2="-1" k3="1"/>
<feColorMatrix type="matrix" values="0 0 0 0 0.298039 0 0 0 0 0.235294 0 0 0 0 0.6 0 0 0 1 0"/>
<feBlend mode="normal" in2="shape" result="effect1_innerShadow_18590_1025"/>
<feColorMatrix in="SourceAlpha" type="matrix" values="0 0 0 0 0 0 0 0 0 0 0 0 0 0 0 0 0 0 127 0" result="hardAlpha"/>
<feOffset dy="-1"/>
<feGaussianBlur stdDeviation="1.5"/>
<feComposite in2="hardAlpha" operator="arithmetic" k2="-1" k3="1"/>
<feColorMatrix type="matrix" values="0 0 0 0 0.352941 0 0 0 0 0.211765 0 0 0 0 0.709804 0 0 0 1 0"/>
<feBlend mode="normal" in2="effect1_innerShadow_18590_1025" result="effect2_innerShadow_18590_1025"/>
</filter>
<filter id="filter1_f_18590_1025" x="25.1608" y="1.4375" width="5.5" height="28.375" filterUnits="userSpaceOnUse" color-interpolation-filters="sRGB">
<feFlood flood-opacity="0" result="BackgroundImageFix"/>
<feBlend mode="normal" in="SourceGraphic" in2="BackgroundImageFix" result="shape"/>
<feGaussianBlur stdDeviation="1" result="effect1_foregroundBlur_18590_1025"/>
</filter>
<filter id="filter2_f_18590_1025" x="2.43719" y="0.75" width="27.2812" height="5.5" filterUnits="userSpaceOnUse" color-interpolation-filters="sRGB">
<feFlood flood-opacity="0" result="BackgroundImageFix"/>
<feBlend mode="normal" in="SourceGraphic" in2="BackgroundImageFix" result="shape"/>
<feGaussianBlur stdDeviation="1" result="effect1_foregroundBlur_18590_1025"/>
</filter>
<filter id="filter3_f_18590_1025" x="3.62604" y="3.59375" width="24.0625" height="24.0625" filterUnits="userSpaceOnUse" color-interpolation-filters="sRGB">
<feFlood flood-opacity="0" result="BackgroundImageFix"/>
<feBlend mode="normal" in="SourceGraphic" in2="BackgroundImageFix" result="shape"/>
<feGaussianBlur stdDeviation="0.5" result="effect1_foregroundBlur_18590_1025"/>
</filter>
<filter id="filter4_ii_18590_1025" x="4.22604" y="4.19375" width="22.8625" height="22.8625" filterUnits="userSpaceOnUse" color-interpolation-filters="sRGB">
<feFlood flood-opacity="0" result="BackgroundImageFix"/>
<feBlend mode="normal" in="SourceGraphic" in2="BackgroundImageFix" result="shape"/>
<feColorMatrix in="SourceAlpha" type="matrix" values="0 0 0 0 0 0 0 0 0 0 0 0 0 0 0 0 0 0 127 0" result="hardAlpha"/>
<feOffset dx="-0.4" dy="0.4"/>
<feGaussianBlur stdDeviation="0.375"/>
<feComposite in2="hardAlpha" operator="arithmetic" k2="-1" k3="1"/>
<feColorMatrix type="matrix" values="0 0 0 0 0.913725 0 0 0 0 0.886275 0 0 0 0 0.968627 0 0 0 1 0"/>
<feBlend mode="normal" in2="shape" result="effect1_innerShadow_18590_1025"/>
<feColorMatrix in="SourceAlpha" type="matrix" values="0 0 0 0 0 0 0 0 0 0 0 0 0 0 0 0 0 0 127 0" result="hardAlpha"/>
<feOffset dx="0.4" dy="-0.4"/>
<feGaussianBlur stdDeviation="0.2"/>
<feComposite in2="hardAlpha" operator="arithmetic" k2="-1" k3="1"/>
<feColorMatrix type="matrix" values="0 0 0 0 1 0 0 0 0 0.988235 0 0 0 0 1 0 0 0 1 0"/>
<feBlend mode="normal" in2="effect1_innerShadow_18590_1025" result="effect2_innerShadow_18590_1025"/>
</filter>
<linearGradient id="paint0_linear_18590_1025" x1="15.6608" y1="5.26201" x2="15.6608" y2="38.5147" gradientUnits="userSpaceOnUse">
<stop stop-color="#9865EE"/>
<stop offset="1" stop-color="#7764C6"/>
</linearGradient>
<radialGradient id="paint1_radial_18590_1025" cx="0" cy="0" r="1" gradientUnits="userSpaceOnUse" gradientTransform="translate(27.3796 3.78125) rotate(136.771) scale(2.14444 2.50466)">
<stop stop-color="#BB8DFF"/>
<stop offset="1" stop-color="#BB8DFF" stop-opacity="0"/>
</radialGradient>
<linearGradient id="paint2_linear_18590_1025" x1="28.4108" y1="4.1875" x2="28.4108" y2="27.0625" gradientUnits="userSpaceOnUse">
<stop stop-color="#AE7EFF"/>
<stop offset="1" stop-color="#8777D6"/>
</linearGradient>
<linearGradient id="paint3_linear_18590_1025" x1="28.1247" y1="3.75002" x2="2.59345" y2="3.75002" gradientUnits="userSpaceOnUse">
<stop stop-color="#A672FF"/>
<stop offset="1" stop-color="#9A6CEB"/>
</linearGradient>
</defs>
</svg>

<svg width="100%" height="100%" viewBox="0 0 32 32" xmlns="http://www.w3.org/2000/svg"><g filter="url(#a)"><rect width="27.875" height="27.875" x="1.723" y="1.688" fill="url(#b)" rx="3.6"/><rect width="27.875" height="27.875" x="1.723" y="1.688" fill="url(#c)" rx="3.6"/></g><g filter="url(#d)"><path stroke="url(#e)" stroke-linecap="round" stroke-width="1.5" d="M27.91 4.188v22.875"/></g><g filter="url(#f)"><path stroke="url(#g)" stroke-linecap="round" stroke-width="1.5" d="M5.187 3.5h21.781"/></g><g filter="url(#h)"><path fill="#6A4EBE" d="M15.657 4.594a.75.75 0 0 0-.75.75v.185a.1.1 0 0 1-.092.1A9.96 9.96 0 0 0 9.19 7.966a.1.1 0 0 1-.136-.005l-.136-.136a.75.75 0 0 0-1.061 1.06l.139.14A.1.1 0 0 1 8 9.16a9.96 9.96 0 0 0-2.311 5.622.1.1 0 0 1-.1.093h-.214a.75.75 0 0 0 0 1.5h.219a.1.1 0 0 1 .1.092 9.96 9.96 0 0 0 2.335 5.594.1.1 0 0 1-.006.136l-.167.168a.75.75 0 1 0 1.06 1.06l.17-.17a.1.1 0 0 1 .137-.005 9.96 9.96 0 0 0 5.59 2.309.1.1 0 0 1 .093.1v.247a.75.75 0 1 0 1.5 0v-.247a.1.1 0 0 1 .093-.1 9.96 9.96 0 0 0 5.59-2.31.1.1 0 0 1 .137.006l.17.17a.75.75 0 0 0 1.06-1.06l-.167-.168a.1.1 0 0 1-.005-.136 9.96 9.96 0 0 0 2.335-5.594.1.1 0 0 1 .1-.092h.219a.75.75 0 1 0 0-1.5h-.214a.1.1 0 0 1-.1-.093 9.96 9.96 0 0 0-2.312-5.622.1.1 0 0 1 .006-.136l.139-.139a.75.75 0 0 0-1.061-1.06l-.136.136a.1.1 0 0 1-.137.005A9.96 9.96 0 0 0 16.5 5.63a.1.1 0 0 1-.093-.1v-.185a.75.75 0 0 0-.75-.75m5.39 4.427a.1.1 0 0 1 .007.147l-3.798 3.798a.1.1 0 0 1-.123.015 3 3 0 0 0-.65-.272.1.1 0 0 1-.076-.098V7.236c0-.06.05-.105.109-.1 1.71.172 3.272.851 4.531 1.885m-2.756 5.135a.1.1 0 0 1 .017-.121l3.803-3.804a.1.1 0 0 1 .148.008 8.46 8.46 0 0 1 1.859 4.528.1.1 0 0 1-.1.108H18.65a.1.1 0 0 1-.098-.076 3 3 0 0 0-.26-.643m-.006 3.037a.1.1 0 0 1-.015-.123q.166-.293.264-.621a.1.1 0 0 1 .097-.074h5.381a.1.1 0 0 1 .1.11 8.46 8.46 0 0 1-1.882 4.499.1.1 0 0 1-.147.006zm-1.19 1.035a.1.1 0 0 1 .12.016l3.805 3.804a.1.1 0 0 1-.008.147 8.46 8.46 0 0 1-4.496 1.856.1.1 0 0 1-.109-.099v-5.375c0-.046.031-.086.075-.098q.323-.092.613-.251m-2.996.016a.1.1 0 0 1 .121-.016q.289.159.612.25a.1.1 0 0 1 .075.099v5.375c0 .059-.05.105-.108.099a8.46 8.46 0 0 1-4.497-1.856.1.1 0 0 1-.007-.147zm-1.054-1.174c.023.04.017.09-.016.122l-3.798 3.799a.1.1 0 0 1-.147-.007 8.46 8.46 0 0 1-1.88-4.5.1.1 0 0 1 .098-.109h5.381c.046 0 .085.03.098.074q.098.328.264.62m-.038-3.035a.1.1 0 0 1 .016.121 3 3 0 0 0-.26.643.1.1 0 0 1-.098.076H7.297a.1.1 0 0 1-.099-.108 8.46 8.46 0 0 1 1.859-4.528.1.1 0 0 1 .147-.008zm1.174-1.054a.1.1 0 0 1-.123-.015l-3.797-3.798a.1.1 0 0 1 .006-.147A8.46 8.46 0 0 1 14.8 7.137a.1.1 0 0 1 .108.099v5.375a.1.1 0 0 1-.075.098q-.344.098-.65.272m2.976 2.613a1.5 1.5 0 1 1-3 0 1.5 1.5 0 0 1 3 0"/></g><g filter="url(#i)"><path fill="#FCF2FF" d="M15.657 4.594a.75.75 0 0 0-.75.75v.185a.1.1 0 0 1-.092.1A9.96 9.96 0 0 0 9.19 7.966a.1.1 0 0 1-.136-.005l-.136-.136a.75.75 0 0 0-1.061 1.06l.139.14A.1.1 0 0 1 8 9.16a9.96 9.96 0 0 0-2.311 5.622.1.1 0 0 1-.1.093h-.214a.75.75 0 0 0 0 1.5h.219a.1.1 0 0 1 .1.092 9.96 9.96 0 0 0 2.335 5.594.1.1 0 0 1-.006.136l-.167.168a.75.75 0 1 0 1.06 1.06l.17-.17a.1.1 0 0 1 .137-.005 9.96 9.96 0 0 0 5.59 2.309.1.1 0 0 1 .093.1v.247a.75.75 0 1 0 1.5 0v-.247a.1.1 0 0 1 .093-.1 9.96 9.96 0 0 0 5.59-2.31.1.1 0 0 1 .137.006l.17.17a.75.75 0 0 0 1.06-1.06l-.167-.168a.1.1 0 0 1-.005-.136 9.96 9.96 0 0 0 2.335-5.594.1.1 0 0 1 .1-.092h.219a.75.75 0 1 0 0-1.5h-.214a.1.1 0 0 1-.1-.093 9.96 9.96 0 0 0-2.312-5.622.1.1 0 0 1 .006-.136l.139-.139a.75.75 0 0 0-1.061-1.06l-.136.136a.1.1 0 0 1-.137.005A9.96 9.96 0 0 0 16.5 5.63a.1.1 0 0 1-.093-.1v-.185a.75.75 0 0 0-.75-.75m5.39 4.427a.1.1 0 0 1 .007.147l-3.798 3.798a.1.1 0 0 1-.123.015 3 3 0 0 0-.65-.272.1.1 0 0 1-.076-.098V7.236c0-.06.05-.105.109-.1 1.71.172 3.272.851 4.531 1.885m-2.756 5.135a.1.1 0 0 1 .017-.121l3.803-3.804a.1.1 0 0 1 .148.008 8.46 8.46 0 0 1 1.859 4.528.1.1 0 0 1-.1.108H18.65a.1.1 0 0 1-.098-.076 3 3 0 0 0-.26-.643m-.006 3.037a.1.1 0 0 1-.015-.123q.166-.293.264-.621a.1.1 0 0 1 .097-.074h5.381a.1.1 0 0 1 .1.11 8.46 8.46 0 0 1-1.882 4.499.1.1 0 0 1-.147.006zm-1.19 1.035a.1.1 0 0 1 .12.016l3.805 3.804a.1.1 0 0 1-.008.147 8.46 8.46 0 0 1-4.496 1.856.1.1 0 0 1-.109-.099v-5.375c0-.046.031-.086.075-.098q.323-.092.613-.251m-2.996.016a.1.1 0 0 1 .121-.016q.289.159.612.25a.1.1 0 0 1 .075.099v5.375c0 .059-.05.105-.108.099a8.46 8.46 0 0 1-4.497-1.856.1.1 0 0 1-.007-.147zm-1.054-1.174c.023.04.017.09-.016.122l-3.798 3.799a.1.1 0 0 1-.147-.007 8.46 8.46 0 0 1-1.88-4.5.1.1 0 0 1 .098-.109h5.381c.046 0 .085.03.098.074q.098.328.264.62m-.038-3.035a.1.1 0 0 1 .016.121 3 3 0 0 0-.26.643.1.1 0 0 1-.098.076H7.297a.1.1 0 0 1-.099-.108 8.46 8.46 0 0 1 1.859-4.528.1.1 0 0 1 .147-.008zm1.174-1.054a.1.1 0 0 1-.123-.015l-3.797-3.798a.1.1 0 0 1 .006-.147A8.46 8.46 0 0 1 14.8 7.137a.1.1 0 0 1 .108.099v5.375a.1.1 0 0 1-.075.098q-.344.098-.65.272m2.976 2.613a1.5 1.5 0 1 1-3 0 1.5 1.5 0 0 1 3 0"/></g><defs><filter id="a" width="29.875" height="28.875" x="1.723" y=".688" color-interpolation-filters="sRGB" filterUnits="userSpaceOnUse"><feFlood flood-opacity="0" result="BackgroundImageFix"/><feBlend in="SourceGraphic" in2="BackgroundImageFix" result="shape"/><feColorMatrix in="SourceAlpha" result="hardAlpha" values="0 0 0 0 0 0 0 0 0 0 0 0 0 0 0 0 0 0 127 0"/><feOffset dx="2" dy="-1"/><feGaussianBlur stdDeviation="1.5"/><feComposite in2="hardAlpha" k2="-1" k3="1" operator="arithmetic"/><feColorMatrix values="0 0 0 0 0.298039 0 0 0 0 0.235294 0 0 0 0 0.6 0 0 0 1 0"/><feBlend in2="shape" result="effect1_innerShadow_18590_1025"/><feColorMatrix in="SourceAlpha" result="hardAlpha" values="0 0 0 0 0 0 0 0 0 0 0 0 0 0 0 0 0 0 127 0"/><feOffset dy="-1"/><feGaussianBlur stdDeviation="1.5"/><feComposite in2="hardAlpha" k2="-1" k3="1" operator="arithmetic"/><feColorMatrix values="0 0 0 0 0.352941 0 0 0 0 0.211765 0 0 0 0 0.709804 0 0 0 1 0"/><feBlend in2="effect1_innerShadow_18590_1025" result="effect2_innerShadow_18590_1025"/></filter><filter id="d" width="5.5" height="28.375" x="25.161" y="1.438" color-interpolation-filters="sRGB" filterUnits="userSpaceOnUse"><feFlood flood-opacity="0" result="BackgroundImageFix"/><feBlend in="SourceGraphic" in2="BackgroundImageFix" result="shape"/><feGaussianBlur result="effect1_foregroundBlur_18590_1025" stdDeviation="1"/></filter><filter id="f" width="27.281" height="5.5" x="2.437" y=".75" color-interpolation-filters="sRGB" filterUnits="userSpaceOnUse"><feFlood flood-opacity="0" result="BackgroundImageFix"/><feBlend in="SourceGraphic" in2="BackgroundImageFix" result="shape"/><feGaussianBlur result="effect1_foregroundBlur_18590_1025" stdDeviation="1"/></filter><filter id="h" width="24.063" height="24.063" x="3.626" y="3.594" color-interpolation-filters="sRGB" filterUnits="userSpaceOnUse"><feFlood flood-opacity="0" result="BackgroundImageFix"/><feBlend in="SourceGraphic" in2="BackgroundImageFix" result="shape"/><feGaussianBlur result="effect1_foregroundBlur_18590_1025" stdDeviation=".5"/></filter><filter id="i" width="22.863" height="22.863" x="4.226" y="4.194" color-interpolation-filters="sRGB" filterUnits="userSpaceOnUse"><feFlood flood-opacity="0" result="BackgroundImageFix"/><feBlend in="SourceGraphic" in2="BackgroundImageFix" result="shape"/><feColorMatrix in="SourceAlpha" result="hardAlpha" values="0 0 0 0 0 0 0 0 0 0 0 0 0 0 0 0 0 0 127 0"/><feOffset dx="-.4" dy=".4"/><feGaussianBlur stdDeviation=".375"/><feComposite in2="hardAlpha" k2="-1" k3="1" operator="arithmetic"/><feColorMatrix values="0 0 0 0 0.913725 0 0 0 0 0.886275 0 0 0 0 0.968627 0 0 0 1 0"/><feBlend in2="shape" result="effect1_innerShadow_18590_1025"/><feColorMatrix in="SourceAlpha" result="hardAlpha" values="0 0 0 0 0 0 0 0 0 0 0 0 0 0 0 0 0 0 127 0"/><feOffset dx=".4" dy="-.4"/><feGaussianBlur stdDeviation=".2"/><feComposite in2="hardAlpha" k2="-1" k3="1" operator="arithmetic"/><feColorMatrix values="0 0 0 0 1 0 0 0 0 0.988235 0 0 0 0 1 0 0 0 1 0"/><feBlend in2="effect1_innerShadow_18590_1025" result="effect2_innerShadow_18590_1025"/></filter><linearGradient id="b" x1="15.661" x2="15.661" y1="5.262" y2="38.515" gradientUnits="userSpaceOnUse"><stop stop-color="#9865EE"/><stop offset="1" stop-color="#7764C6"/></linearGradient><linearGradient id="e" x1="28.411" x2="28.411" y1="4.188" y2="27.063" gradientUnits="userSpaceOnUse"><stop stop-color="#AE7EFF"/><stop offset="1" stop-color="#8777D6"/></linearGradient><linearGradient id="g" x1="28.125" x2="2.593" y1="3.75" y2="3.75" gradientUnits="userSpaceOnUse"><stop stop-color="#A672FF"/><stop offset="1" stop-color="#9A6CEB"/></linearGradient><radialGradient id="c" cx="0" cy="0" r="1" gradientTransform="matrix(-1.56249 1.46876 -1.71548 -1.82495 27.38 3.781)" gradientUnits="userSpaceOnUse"><stop stop-color="#BB8DFF"/><stop offset="1" stop-color="#BB8DFF" stop-opacity="0"/></radialGradient></defs></svg>
